icons/1_Primary/Nuki.svg

<svg width="1024" height="1024" fill="none" xmlns="http://www.w3.org/2000/svg"><g clip-path="url(#a)"><path d="M512 1024c282.77 0 512-229.23 512-512S794.77 0 512 0 0 229.23 0 512s229.23 512 512 512Z" fill="#56595B"/><path d="M256 449c.1-1.9 1.7-3.4 3.6-3.4h4.6l75.3 72.4v-66.9c0-2 1.6-3.6 3.6-3.6H366c2 .1 3.5 1.6 3.6 3.6V578c-.1 1.9-1.7 3.4-3.6 3.4h-3.2c-.9-.1-1.7-.4-2.4-.9L286 505.6v70.3c0 2-1.6 3.6-3.6 3.6h-22.6c-2 0-3.7-1.6-3.8-3.6V449Zm167.8 2.1V529c.8 28.5 23.7 51.3 52.2 52.2 29.7.9 54.4-22.5 55.3-52.2v-77.9c-.1-2-1.6-3.5-3.6-3.6h-23c-2 0-3.6 1.6-3.6 3.6v76.3c0 12.9-10.5 23.4-23.4 23.4-12.9 0-23.4-10.5-23.4-23.4v-76.3c0-2-1.6-3.6-3.6-3.6h-23c-2 .1-3.5 1.6-3.6 3.6h-.3Zm162.8.9v122.9c0 2.5 2.1 4.6 4.6 4.6h22c2.5 0 4.6-2.1 4.6-4.6v-56.2l43.5 59c.9.8 2.1 1.3 3.4 1.3h26c.7-.1 1.4-.3 2.1-.7 2.2-1.3 2.8-4.2 1.5-6.3l-47.9-62.4 44.1-55.2c.4-.6.6-1.2.7-1.9.3-2.5-1.5-4.8-4.1-5.1h-23.7c-1.4.2-2.7.8-3.6 1.9l-41.9 52.2V452c0-2.5-2.1-4.6-4.6-4.6h-22c-2.6 0-4.6 2.1-4.7 4.6Zm151.7 123.9c.1 2 1.6 3.5 3.6 3.6h22.6c2-.1 3.5-1.6 3.6-3.6V451.1c-.1-2-1.6-3.5-3.6-3.6h-22.6c-2 .1-3.5 1.6-3.6 3.6v124.8Zm-4.5-204.5c.1 10.5 8.7 19 19.2 18.9 10.8 0 19.5-8.7 19.5-19.5s-8.7-19.5-19.5-19.5h-.6c-10.6.3-18.9 9.1-18.6 19.6v.5Z" fill="#fff"/></g><defs><clipPath id="a"><path fill="#fff" d="M0 0h1024v1024H0z"/></clipPath></defs></svg>

<svg width="1024" height="1024" viewBox="0 0 1024 1024" fill="none" xmlns="http://www.w3.org/2000/svg">
<g clip-path="url(#clip0_2_2985)">
<path d="M512 1024C794.77 1024 1024 794.77 1024 512C1024 229.23 794.77 0 512 0C229.23 0 0 229.23 0 512C0 794.77 229.23 1024 512 1024Z" fill="#56595B"/>
<path d="M256 449C256.1 447.1 257.7 445.6 259.6 445.6H264.2L339.5 518V451.1C339.5 449.1 341.1 447.5 343.1 447.5H366C368 447.6 369.5 449.1 369.6 451.1V578C369.5 579.9 367.9 581.4 366 581.4H362.8C361.9 581.3 361.1 581 360.4 580.5L286 505.6V575.9C286 577.9 284.4 579.5 282.4 579.5H259.8C257.8 579.5 256.1 577.9 256 575.9V449ZM423.8 451.1V529C424.6 557.5 447.5 580.3 476 581.2C505.7 582.1 530.4 558.7 531.3 529V451.1C531.2 449.1 529.7 447.6 527.7 447.5H504.7C502.7 447.5 501.1 449.1 501.1 451.1V527.4C501.1 540.3 490.6 550.8 477.7 550.8C464.8 550.8 454.3 540.3 454.3 527.4V451.1C454.3 449.1 452.7 447.5 450.7 447.5H427.7C425.7 447.6 424.2 449.1 424.1 451.1H423.8ZM586.6 452V574.9C586.6 577.4 588.7 579.5 591.2 579.5H613.2C615.7 579.5 617.8 577.4 617.8 574.9V518.7L661.3 577.7C662.2 578.5 663.4 579 664.7 579H690.7C691.4 578.9 692.1 578.7 692.8 578.3C695 577 695.6 574.1 694.3 572L646.4 509.6L690.5 454.4C690.9 453.8 691.1 453.2 691.2 452.5C691.5 450 689.7 447.7 687.1 447.4H663.4C662 447.6 660.7 448.2 659.8 449.3L617.9 501.5V452C617.9 449.5 615.8 447.4 613.3 447.4H591.3C588.7 447.4 586.7 449.5 586.6 452ZM738.3 575.9C738.4 577.9 739.9 579.4 741.9 579.5H764.5C766.5 579.4 768 577.9 768.1 575.9V451.1C768 449.1 766.5 447.6 764.5 447.5H741.9C739.9 447.6 738.4 449.1 738.3 451.1V575.9ZM733.8 371.4C733.9 381.9 742.5 390.4 753 390.3C763.8 390.3 772.5 381.6 772.5 370.8C772.5 360 763.8 351.3 753 351.3H752.4C741.8 351.6 733.5 360.4 733.8 370.9V371.4Z" fill="white"/>
</g>
<defs>
<clipPath id="clip0_2_2985">
<rect width="1024" height="1024" fill="white"/>
</clipPath>
</defs>
</svg>
